X:0576
M:C
L:1/8
Q:1/4=100 "Moderately"
K:D
zd |g>abg f>gaf|gfed {d}e2 d3/e//f//|D3F  A>BdA|B2 d>e  d2||
d>e|fdeB  dABF |E2e>f  Te2 fa       |bafb adbd |f2 a>b Ta2
gf |g>abg f>gaf|gfed {f}e2 de/f/    |D3F  A>BdA|B2 d>e  d2|]

